svg/m/VA.svg

<svg width="20" height="15" viewBox="0 0 20 15" fill="none" xmlns="http://www.w3.org/2000/svg">
<g clip-path="url(#clip0_270_60785)">
<rect width="20" height="15" fill="white"/>
<path fill-rule="evenodd" clip-rule="evenodd" d="M0 0H20V15H0V0Z" fill="#F7FCFF"/>
<path fill-rule="evenodd" clip-rule="evenodd" d="M0 0H8.75V15H0V0Z" fill="#FFDC17"/>
<path d="M14.2385 7.96948L14.0228 7.98354C14.0743 8.72464 14.2335 9.29712 14.5037 9.70113C14.9395 10.3526 15.5145 10.8564 15.8993 10.8564C15.9867 10.8564 16.007 10.8889 15.9782 10.969C15.9372 11.0829 15.8076 11.195 15.6408 11.238C15.3635 11.3095 14.7327 11.3465 13.7591 11.3465V11.5558C14.7521 11.5558 15.3944 11.5181 15.6965 11.4402C15.9311 11.3797 16.1173 11.2188 16.1824 11.0378C16.2577 10.8285 16.1441 10.6471 15.8993 10.6471C15.6135 10.6471 15.0834 10.1827 14.6852 9.58738C14.4378 9.2174 14.2878 8.67805 14.2385 7.96948Z" fill="#AF0100"/>
<path d="M13.2169 7.96948L13.4326 7.98354C13.3811 8.72464 13.2218 9.29712 12.9517 9.70113C12.5159 10.3526 11.9409 10.8564 11.5561 10.8564C11.4687 10.8564 11.4483 10.8889 11.4772 10.969C11.5182 11.0829 11.6478 11.195 11.8145 11.238C12.0919 11.3095 12.7227 11.3465 13.6963 11.3465V11.5558C12.7032 11.5558 12.061 11.5181 11.7589 11.4402C11.5243 11.3797 11.3381 11.2188 11.273 11.0378C11.1977 10.8285 11.3113 10.6471 11.5561 10.6471C11.8419 10.6471 12.372 10.1827 12.7702 9.58738C13.0176 9.2174 13.1676 8.67805 13.2169 7.96948Z" fill="#AF0100"/>
<path fill-rule="evenodd" clip-rule="evenodd" d="M17.5418 4.24884L11.8284 8.70259C11.6283 8.63741 11.4099 8.60175 11.1824 8.60175C10.2555 8.60175 9.47974 9.19384 9.47974 9.96221C9.47974 10.7306 10.2555 11.3227 11.1824 11.3227C11.2887 11.3227 11.3931 11.3149 11.4945 11.2999C11.4007 11.2267 11.3306 11.1351 11.2956 11.0378C11.2535 10.9207 11.2705 10.8123 11.3366 10.7395C11.2863 10.7445 11.2349 10.7471 11.1824 10.7471C10.557 10.7471 10.0743 10.3787 10.0743 9.96222C10.0743 9.54575 10.557 9.17733 11.1824 9.17733C11.8079 9.17733 12.2905 9.54575 12.2905 9.96222C12.2905 10.0896 12.2454 10.2125 12.1647 10.3218C12.1799 10.3083 12.1952 10.2944 12.2104 10.2801C12.4084 10.0958 11.9635 10.8564 11.5787 10.8564C11.4913 10.8564 11.471 10.8888 11.4998 10.969C11.5382 11.0757 11.6543 11.1808 11.806 11.229C12.4327 11.033 12.8851 10.549 12.8851 9.96221C12.8851 9.72217 12.8094 9.49934 12.6771 9.30638L15.7476 6.70038L15.9531 6.91272L16.1011 6.77855L16.614 7.15866L16.3995 7.324L16.8373 7.85611L17.7204 7.17528L17.7354 7.16754L17.7328 7.16575L17.7875 7.12355L17.3497 6.59144L17.1381 6.75461L16.5646 6.35811L16.6318 6.29714L16.4473 6.10652L16.7248 5.87103L16.872 6.02318L17.0302 5.87976L17.5274 6.27335L17.3184 6.43446L17.7562 6.96657L18.5127 6.38335L18.5994 6.33592L18.5868 6.32626L18.7064 6.23402L18.2687 5.70191L18.0214 5.89252L17.4768 5.47468L17.5507 5.40761L17.4245 5.27717L17.9898 4.79741L17.5418 4.24884Z" fill="#F4B300"/>
<path fill-rule="evenodd" clip-rule="evenodd" d="M9.80406 9.20347C9.96825 9.20347 10.1014 9.09805 10.1014 8.96801C10.1014 8.83797 9.96825 8.73254 9.80406 8.73254C9.63986 8.73254 9.50676 8.83797 9.50676 8.96801C9.50676 9.09805 9.63986 9.20347 9.80406 9.20347ZM9.91217 11.3488C10.0764 11.3488 10.2095 11.2434 10.2095 11.1134C10.2095 10.9833 10.0764 10.8779 9.91217 10.8779C9.74797 10.8779 9.61487 10.9833 9.61487 11.1134C9.61487 11.2434 9.74797 11.3488 9.91217 11.3488ZM12.8581 11.1134C12.8581 11.2434 12.725 11.3488 12.5608 11.3488C12.3966 11.3488 12.2635 11.2434 12.2635 11.1134C12.2635 10.9833 12.3966 10.8779 12.5608 10.8779C12.725 10.8779 12.8581 10.9833 12.8581 11.1134Z" fill="#BFBFBF"/>
<path fill-rule="evenodd" clip-rule="evenodd" d="M14.6149 9.96222C14.6149 9.61686 14.7716 9.30711 15.0283 9.07073L11.7474 6.52989L11.71 6.5587L11.8056 6.64544L11.5469 6.91273L11.4107 6.78918L10.9085 7.17596L11.1005 7.32401L10.6627 7.85612L9.78902 7.18255L9.76464 7.16755L9.76724 7.16576L9.7125 7.12356L10.1503 6.59145L10.3619 6.75462L10.9354 6.35812L10.8682 6.29715L11.1161 6.04102L10.8272 5.81732L10.628 6.02319L10.4758 5.88514L9.98489 6.28284L10.1816 6.43447L9.74382 6.96658L9.01134 6.40191L8.90065 6.33592L8.91323 6.32627L8.79358 6.23402L9.23134 5.70191L9.47859 5.89253L10.0232 5.47469L9.94926 5.40762L10.0987 5.25318L9.51023 4.79741L9.88167 4.34796L15.5578 8.74365C15.7876 8.65254 16.0461 8.60176 16.3176 8.60176C17.2445 8.60176 18.0203 9.19385 18.0203 9.96222C18.0203 10.7306 17.2445 11.3227 16.3176 11.3227C16.2113 11.3227 16.1069 11.3149 16.0056 11.3C16.0993 11.2267 16.1694 11.1352 16.2044 11.0378C16.2465 10.9207 16.2295 10.8123 16.1634 10.7395C16.2137 10.7445 16.2651 10.7471 16.3176 10.7471C16.943 10.7471 17.4257 10.3787 17.4257 9.96222C17.4257 9.54575 16.943 9.17734 16.3176 9.17734C15.6922 9.17734 15.2095 9.54575 15.2095 9.96222C15.2095 10.0896 15.2546 10.2126 15.3353 10.3218C15.3201 10.3083 15.3049 10.2944 15.2896 10.2802C15.0916 10.0958 15.5365 10.8564 15.9213 10.8564C16.0087 10.8564 16.029 10.8889 16.0002 10.969C15.9618 11.0757 15.8457 11.1808 15.6941 11.229C15.0673 11.033 14.6149 10.549 14.6149 9.96222Z" fill="#BFBFBF"/>
<path fill-rule="evenodd" clip-rule="evenodd" d="M17.696 9.20347C17.5318 9.20347 17.3987 9.09805 17.3987 8.96801C17.3987 8.83797 17.5318 8.73254 17.696 8.73254C17.8601 8.73254 17.9932 8.83797 17.9932 8.96801C17.9932 9.09805 17.8601 9.20347 17.696 9.20347ZM17.5878 11.3488C17.4236 11.3488 17.2905 11.2434 17.2905 11.1134C17.2905 10.9833 17.4236 10.8779 17.5878 10.8779C17.752 10.8779 17.8851 10.9833 17.8851 11.1134C17.8851 11.2434 17.752 11.3488 17.5878 11.3488ZM14.6419 11.1134C14.6419 11.2434 14.775 11.3488 14.9392 11.3488C15.1034 11.3488 15.2365 11.2434 15.2365 11.1134C15.2365 10.9833 15.1034 10.8779 14.9392 10.8779C14.775 10.8779 14.6419 10.9833 14.6419 11.1134Z" fill="#F4B300"/>
<path fill-rule="evenodd" clip-rule="evenodd" d="M13.5878 7.37207C13.5431 7.37207 13.5068 7.40837 13.5068 7.45315V7.79067H13.2069C13.1635 7.79067 13.1284 7.82582 13.1284 7.86916C13.1284 7.91251 13.1635 7.94765 13.2069 7.94765H13.5068V12.4189C13.5068 12.4637 13.5431 12.5 13.5878 12.5H13.75C13.7948 12.5 13.8311 12.4637 13.8311 12.4189V7.94765H14.2931C14.3365 7.94765 14.3716 7.91251 14.3716 7.86916C14.3716 7.82582 14.3365 7.79067 14.2931 7.79067H13.8311V7.45315C13.8311 7.40837 13.7948 7.37207 13.75 7.37207H13.5878Z" fill="#AF0100"/>
<path fill-rule="evenodd" clip-rule="evenodd" d="M10.4716 4.74607L10.6039 4.83686C10.9122 4.41583 11.1897 4.33126 11.4719 4.55223C11.9591 4.93372 12.0013 5.86448 11.4803 6.17612C10.8588 6.54778 10.5438 7.2726 10.8194 7.66708C11.0737 8.03108 11.6867 7.89334 12.2919 7.43612C12.3993 7.35495 12.5018 7.26829 12.598 7.17723L12.4702 7.07853C12.3825 7.16054 12.2895 7.2388 12.1921 7.31237C11.6523 7.72018 11.1336 7.83672 10.9537 7.57915C10.7389 7.27164 11.0135 6.63979 11.5655 6.30966C12.1899 5.93623 12.1418 4.87483 11.5739 4.43018C11.2076 4.14339 10.8283 4.25899 10.4716 4.74607ZM12.8515 6.65311L12.9835 6.74462C13.213 6.43489 13.3698 6.09947 13.4218 5.76911L13.2615 5.74545C13.2136 6.04971 13.067 6.36242 12.8515 6.65311Z" fill="#979797"/>
<path fill-rule="evenodd" clip-rule="evenodd" d="M17.0434 4.74607L16.9111 4.83686C16.6028 4.41583 16.3253 4.33126 16.0431 4.55223C15.5559 4.93372 15.5137 5.86448 16.0347 6.17612C16.6562 6.54778 16.9712 7.2726 16.6956 7.66708C16.4414 8.03108 15.8283 7.89334 15.2231 7.43612C15.1157 7.35495 15.0133 7.26829 14.917 7.17723L15.0448 7.07853C15.1325 7.16054 15.2255 7.2388 15.3229 7.31237C15.8627 7.72018 16.3814 7.83672 16.5613 7.57915C16.7761 7.27164 16.5015 6.63979 15.9495 6.30966C15.3251 5.93623 15.3732 4.87483 15.9411 4.43018C16.3074 4.14339 16.6867 4.25899 17.0434 4.74607ZM14.6635 6.65311L14.5315 6.74462C14.302 6.43489 14.1452 6.09947 14.0932 5.76911L14.2535 5.74545C14.3014 6.04971 14.448 6.36242 14.6635 6.65311Z" fill="#979797"/>
<path fill-rule="evenodd" clip-rule="evenodd" d="M13.6689 12.5104C13.848 12.5104 13.9932 12.4378 13.9932 12.3482C13.9932 12.2586 13.848 12.186 13.6689 12.186C13.4898 12.186 13.3446 12.2586 13.3446 12.3482C13.3446 12.4378 13.4898 12.5104 13.6689 12.5104Z" fill="#AF0100"/>
<path fill-rule="evenodd" clip-rule="evenodd" d="M13.6149 5.76211C14.2418 5.76211 14.75 5.6774 14.75 5.57292C14.75 5.46843 14.2418 5.38373 13.6149 5.38373C12.988 5.38373 12.4797 5.46843 12.4797 5.57292C12.4797 5.6774 12.988 5.76211 13.6149 5.76211Z" fill="#AF0100"/>
<path fill-rule="evenodd" clip-rule="evenodd" d="M13.6788 1.27399H13.5166V1.46094H13.363V1.61792H13.5166V2.07604H13.6788V1.61792H13.8659V1.46094H13.6788V1.27399ZM12.4594 3.53544L12.387 3.41351C12.4267 3.39688 12.4671 3.38119 12.5084 3.36644L12.2974 2.9038L12.4458 2.8404L12.663 3.31668C12.709 3.30341 12.756 3.2912 12.8039 3.28004C12.7706 3.2423 12.75 3.19067 12.75 3.13373C12.75 3.01813 12.8347 2.92442 12.9392 2.92442C13.0437 2.92442 13.1284 3.01813 13.1284 3.13373C13.1284 3.16635 13.1216 3.19723 13.1096 3.22475C13.238 3.20771 13.3722 3.19717 13.5121 3.19309V3.01572H13.309V2.88947H13.5121V2.7391H13.7265V2.88947H13.974V3.01572H13.7265V3.19185C13.8859 3.19462 14.0351 3.20571 14.1744 3.22516C14.1622 3.19754 14.1554 3.16651 14.1554 3.13373C14.1554 3.01813 14.2401 2.92442 14.3446 2.92442C14.4491 2.92442 14.5338 3.01813 14.5338 3.13373C14.5338 3.19292 14.5116 3.24638 14.4759 3.28446C14.5363 3.30022 14.5944 3.31799 14.65 3.33777L14.8053 2.99738L14.9536 3.06077L14.7996 3.39845C14.8118 3.40406 14.8238 3.40978 14.8358 3.41562L14.7541 3.53333L14.741 3.527L14.7161 3.58164L14.5677 3.51825L14.592 3.4651C14.3554 3.38019 14.067 3.33433 13.7265 3.32815V3.38418H13.5121V3.32944C13.1079 3.34176 12.7572 3.41059 12.4594 3.53544ZM12.387 3.67514L12.4249 3.73888L12.2974 3.79333L12.5084 4.25597C12.4671 4.27073 12.4267 4.28642 12.387 4.30304L12.4594 4.42497C12.7572 4.30012 13.1079 4.23129 13.5121 4.21898V4.27371H13.7265V4.21768C14.067 4.22386 14.3554 4.26973 14.592 4.35463L14.5677 4.40778L14.7161 4.47118L14.741 4.41654L14.7541 4.42286L14.8358 4.30515C14.8238 4.29931 14.8118 4.29359 14.7996 4.28798L14.9536 3.95031L14.8053 3.88691L14.65 4.2273C14.5944 4.20752 14.5363 4.18975 14.4759 4.17399C14.5116 4.13592 14.5338 4.08246 14.5338 4.02326C14.5338 3.90767 14.4491 3.81396 14.3446 3.81396C14.2401 3.81396 14.1554 3.90767 14.1554 4.02326C14.1554 4.05605 14.1622 4.08707 14.1744 4.1147C14.0351 4.09524 13.8859 4.08416 13.7265 4.08139V3.90526H13.974V3.779H13.7265V3.62864H13.5121V3.779H13.309V3.90526H13.5121V4.08262C13.3722 4.0867 13.238 4.09725 13.1096 4.11428C13.1216 4.08676 13.1284 4.05588 13.1284 4.02326C13.1284 3.90767 13.0437 3.81396 12.9392 3.81396C12.8347 3.81396 12.75 3.90767 12.75 4.02326C12.75 4.0802 12.7706 4.13184 12.8039 4.16957C12.756 4.18073 12.709 4.19295 12.663 4.20621L12.4737 3.79113C12.801 3.65663 13.1915 3.58905 13.6461 3.58905C14.1059 3.58905 14.475 3.65818 14.7541 3.79495L14.8358 3.67725C14.5294 3.52711 14.1326 3.45279 13.6461 3.45279C13.161 3.45279 12.741 3.52668 12.387 3.67514ZM12.387 4.56467L12.4249 4.62841L12.2974 4.68287L12.5084 5.14551C12.4671 5.16026 12.4267 5.17595 12.387 5.19258L12.4594 5.31451C12.7572 5.18966 13.1079 5.12083 13.5121 5.10851V5.16325H13.7265V5.10722C14.067 5.1134 14.3554 5.15926 14.592 5.24417L14.5677 5.29732L14.7161 5.36071L14.741 5.30607L14.7541 5.3124L14.8358 5.19469C14.8238 5.18885 14.8118 5.18313 14.7996 5.17752L14.9536 4.83984L14.8053 4.77645L14.65 5.11684C14.5944 5.09706 14.5363 5.07929 14.4759 5.06352C14.5116 5.02545 14.5338 4.97199 14.5338 4.9128C14.5338 4.7972 14.4491 4.70349 14.3446 4.70349C14.2401 4.70349 14.1554 4.7972 14.1554 4.9128C14.1554 4.94558 14.1622 4.97661 14.1744 5.00423C14.0351 4.98478 13.8859 4.97369 13.7265 4.97092V4.79479H13.974V4.66854H13.7265V4.51817H13.5121V4.66854H13.309V4.79479H13.5121V4.97216C13.3722 4.97624 13.238 4.98678 13.1096 5.00382C13.1216 4.97629 13.1284 4.94542 13.1284 4.9128C13.1284 4.7972 13.0437 4.70349 12.9392 4.70349C12.8347 4.70349 12.75 4.7972 12.75 4.9128C12.75 4.96974 12.7706 5.02137 12.8039 5.05911C12.756 5.07027 12.709 5.08248 12.663 5.09575L12.4737 4.68067C12.801 4.54616 13.1915 4.47859 13.6461 4.47859C14.1059 4.47859 14.475 4.54772 14.7541 4.68449L14.8358 4.56678C14.5294 4.41665 14.1326 4.34232 13.6461 4.34232C13.161 4.34232 12.741 4.41622 12.387 4.56467ZM12.387 5.45421L12.4594 5.57613C12.7896 5.43768 13.1849 5.36812 13.6461 5.36812C14.1059 5.36812 14.475 5.43725 14.7541 5.57402L14.8358 5.45632C14.5294 5.30618 14.1326 5.23186 13.6461 5.23186C13.161 5.23186 12.741 5.30575 12.387 5.45421Z" fill="#F4B300"/>
</g>
<defs>
<clipPath id="clip0_270_60785">
<rect width="20" height="15" fill="white"/>
</clipPath>
</defs>
</svg>

<svg width="20" height="15" fill="none" xmlns="http://www.w3.org/2000/svg">
  <mask id="a" maskUnits="userSpaceOnUse" x="0" y="0" width="20" height="15">
    <path fill="#fff" d="M0 0h20v15H0z"/>
  </mask>
  <g mask="url(#a)">
    <path fill-rule="evenodd" clip-rule="evenodd" d="M0 0h20v15H0V0z" fill="#F7FCFF"/>
    <path fill-rule="evenodd" clip-rule="evenodd" d="M0 0h8.75v15H0V0z" fill="#FFDC17"/>
    <path d="M14.239 7.97l-.216.014c.051.74.21 1.313.48 1.717.437.652 1.011 1.155 1.396 1.155.088 0 .108.033.08.113-.042.114-.171.226-.338.269-.277.072-.908.109-1.882.109v.209c.993 0 1.635-.038 1.938-.116.234-.06.42-.221.485-.402.076-.21-.038-.39-.283-.39-.285 0-.816-.465-1.214-1.06-.247-.37-.397-.91-.447-1.619zm-1.022 0l.216.014c-.052.74-.211 1.313-.481 1.717-.436.652-1.011 1.155-1.396 1.155-.087 0-.108.033-.079.113.041.114.17.226.338.269.277.072.908.109 1.881.109v.209c-.993 0-1.635-.038-1.937-.116-.235-.06-.42-.221-.486-.402-.075-.21.038-.39.283-.39.286 0 .816-.465 1.214-1.06.248-.37.398-.91.447-1.619z" fill="#AF0100"/>
    <path fill-rule="evenodd" clip-rule="evenodd" d="M17.542 4.249l-5.714 4.454a2.062 2.062 0 00-.646-.101c-.927 0-1.702.592-1.702 1.36 0 .769.775 1.36 1.702 1.36.107 0 .211-.007.313-.022a.598.598 0 01-.2-.262c-.041-.117-.024-.226.042-.299a1.56 1.56 0 01-.155.008c-.625 0-1.108-.368-1.108-.785 0-.416.483-.785 1.108-.785.626 0 1.108.369 1.108.785a.61.61 0 01-.125.36l.045-.042c.198-.184-.247.576-.631.576-.088 0-.108.033-.08.113.04.107.155.212.307.26.627-.196 1.08-.68 1.08-1.267 0-.24-.077-.463-.209-.656l3.07-2.606.206.213.148-.134.513.38-.215.165.438.532.883-.68.015-.008-.002-.002.055-.042-.438-.533-.212.164-.573-.397.067-.06-.185-.191.278-.236.147.152.158-.143.497.393-.209.161.438.533.757-.584.086-.047-.012-.01.12-.092-.438-.532-.248.19-.544-.417.074-.067-.127-.13.566-.48-.448-.55z" fill="#F4B300"/>
    <path fill-rule="evenodd" clip-rule="evenodd" d="M9.804 9.203c.164 0 .297-.105.297-.235s-.133-.235-.297-.235c-.164 0-.297.105-.297.235s.133.235.297.235zm.108 2.146c.164 0 .297-.106.297-.236s-.133-.235-.297-.235c-.164 0-.297.105-.297.235s.133.236.297.236zm2.946-.236c0 .13-.133.236-.297.236-.164 0-.297-.106-.297-.236s.133-.235.297-.235c.164 0 .297.105.297.235zm1.757-1.151c0-.345.157-.655.413-.891l-3.28-2.541-.038.029.096.086-.26.268-.135-.124-.502.387.191.148-.437.532-.874-.673-.024-.015.002-.002-.054-.042.437-.533.212.164.573-.397-.067-.06.248-.257-.289-.224-.199.206-.152-.138-.491.398.197.151-.438.533-.733-.565-.11-.066.012-.01-.12-.092.438-.532.248.19.544-.417-.074-.067.15-.155-.589-.456.372-.449 5.676 4.396c.23-.091.488-.142.76-.142.926 0 1.702.592 1.702 1.36 0 .769-.776 1.36-1.702 1.36-.107 0-.211-.007-.312-.022a.6.6 0 00.198-.262c.043-.117.026-.226-.04-.299.05.005.101.008.154.008.625 0 1.108-.368 1.108-.785 0-.416-.483-.785-1.108-.785-.626 0-1.109.369-1.109.785 0 .128.046.25.126.36a2.827 2.827 0 01-.045-.042c-.198-.184.247.576.631.576.088 0 .108.033.08.113a.478.478 0 01-.307.26c-.627-.196-1.08-.68-1.08-1.267z" fill="#BFBFBF"/>
    <path fill-rule="evenodd" clip-rule="evenodd" d="M17.696 9.203c-.164 0-.297-.105-.297-.235s.133-.235.297-.235c.164 0 .297.105.297.235s-.133.235-.297.235zm-.108 2.146c-.164 0-.297-.106-.297-.236s.133-.235.297-.235c.164 0 .297.105.297.235s-.133.236-.297.236zm-2.946-.236c0 .13.133.236.297.236.164 0 .297-.106.297-.236s-.133-.235-.297-.235c-.164 0-.297.105-.297.235z" fill="#F4B300"/>
    <path fill-rule="evenodd" clip-rule="evenodd" d="M13.588 7.372a.081.081 0 00-.081.081v.338h-.3a.078.078 0 100 .157h.3v4.47a.08.08 0 00.08.082h.163a.081.081 0 00.081-.081V7.948h.462a.078.078 0 100-.157h-.462v-.338a.081.081 0 00-.081-.08h-.162z" fill="#AF0100"/>
    <path fill-rule="evenodd" clip-rule="evenodd" d="M10.472 4.746l.132.09c.308-.42.586-.505.868-.284.487.382.53 1.312.008 1.624-.621.372-.936 1.097-.66 1.491.254.364.867.226 1.472-.23.107-.082.21-.169.306-.26l-.128-.098c-.088.082-.18.16-.278.233-.54.408-1.058.525-1.238.267-.215-.307.06-.94.611-1.27.625-.373.577-1.434.009-1.879-.366-.287-.746-.171-1.102.316zm2.38 1.907l.131.092c.23-.31.387-.646.439-.976l-.16-.024c-.048.305-.195.617-.41.908zm4.191-1.907l-.132.09c-.308-.42-.586-.505-.868-.284-.487.382-.53 1.312-.008 1.624.621.372.936 1.097.66 1.491-.254.364-.867.226-1.472-.23a3.642 3.642 0 01-.306-.26l.128-.098c.088.082.18.16.278.233.54.408 1.058.525 1.238.267.215-.307-.06-.94-.611-1.27-.625-.373-.577-1.434-.009-1.879.366-.287.746-.171 1.102.316zm-2.38 1.907l-.132.092c-.229-.31-.386-.646-.438-.976l.16-.024c.048.305.195.617.41.908z" fill="#979797"/>
    <path fill-rule="evenodd" clip-rule="evenodd" d="M13.669 12.51c.179 0 .324-.072.324-.162 0-.09-.145-.162-.324-.162-.18 0-.324.073-.324.162 0 .09.145.162.324.162zm-.054-6.748c.627 0 1.135-.085 1.135-.19 0-.104-.508-.188-1.135-.188s-1.135.084-1.135.189c0 .104.508.19 1.135.19z" fill="#AF0100"/>
    <path fill-rule="evenodd" clip-rule="evenodd" d="M13.679 1.274h-.162v.187h-.154v.157h.154v.458h.162v-.458h.187V1.46h-.187v-.187zm-1.22 2.261l-.072-.121c.04-.017.08-.033.121-.048l-.21-.462.148-.064.217.477c.046-.014.093-.026.14-.037a.22.22 0 01-.053-.146c0-.116.085-.21.19-.21.104 0 .188.094.188.21a.228.228 0 01-.018.09 3.91 3.91 0 01.402-.03v-.178h-.203v-.127h.203v-.15h.214v.15h.248v.127h-.248v.176c.16.003.31.014.448.033a.226.226 0 01-.019-.091c0-.116.085-.21.19-.21.104 0 .189.094.189.21a.22.22 0 01-.058.15c.06.016.118.034.174.054l.155-.34.149.063-.154.337.036.018-.082.117-.013-.006-.025.055-.148-.064.024-.053a2.724 2.724 0 00-.866-.137v.056h-.214V3.33a2.946 2.946 0 00-1.053.206zm-.072.14l.038.064-.128.054.211.463c-.04.015-.081.03-.121.047l.072.122a2.945 2.945 0 011.053-.206v.055h.214v-.056c.341.006.63.052.866.137l-.024.053.148.063.025-.054.013.006.082-.118a1.823 1.823 0 00-.036-.017l.154-.338-.149-.063-.155.34a2.106 2.106 0 00-.174-.053.22.22 0 00.058-.15c0-.116-.085-.21-.19-.21-.104 0-.189.094-.189.21 0 .032.007.063.02.09-.14-.019-.29-.03-.449-.033v-.176h.248V3.78h-.248v-.15h-.214v.15h-.203v.126h.203v.178c-.14.004-.274.014-.402.031a.228.228 0 00.018-.09c0-.116-.084-.21-.189-.21-.104 0-.189.094-.189.21 0 .056.02.108.054.146a2.814 2.814 0 00-.141.036l-.19-.415c.328-.134.718-.202 1.173-.202.46 0 .829.07 1.108.206l.082-.118c-.307-.15-.703-.224-1.19-.224-.485 0-.905.074-1.259.222zm0 .89l.038.063-.128.055.211.463c-.04.014-.081.03-.121.047l.072.122a2.946 2.946 0 011.053-.206v.054h.214v-.056c.341.006.63.052.866.137l-.024.053.148.064.025-.055.013.006.082-.117a1.823 1.823 0 00-.036-.017l.154-.338-.149-.064-.155.34a2.11 2.11 0 00-.174-.052.22.22 0 00.058-.151c0-.116-.085-.21-.19-.21-.104 0-.189.094-.189.21a.21.21 0 00.02.091 3.71 3.71 0 00-.449-.033v-.176h.248v-.126h-.248v-.15h-.214v.15h-.203v.126h.203v.177c-.14.004-.274.015-.402.032a.228.228 0 00.018-.091c0-.116-.084-.21-.189-.21-.104 0-.189.094-.189.21 0 .057.02.108.054.146a2.804 2.804 0 00-.141.037l-.19-.415c.328-.135.718-.202 1.173-.202.46 0 .829.069 1.108.205l.082-.117c-.307-.15-.703-.225-1.19-.225-.485 0-.905.074-1.259.223zm0 .89l.072.121c.33-.138.726-.208 1.187-.208.46 0 .829.07 1.108.206l.082-.118c-.307-.15-.703-.224-1.19-.224-.485 0-.905.074-1.259.222z" fill="#F4B300"/>
  </g>
</svg>
